X:1
T:High Caul'd Cap, The
L:1/8
M:C
S:O'Neill - 1001 Gems (1000)
Z:Bob Pfeffer  irtrad-l 2001-10-23
K:G
D2|G3A B2d2|cBAG B2GA|B2A2A2 GA|B2A2A2D2|
 G3A B2d2|cBAG B2BA|G2E2E2 DE|G2E2E2:|
|:d2|e2g2d2B2|cBAG B2GA|B2A2A2 GA|B2A2A2d2|
 e2g2d2B2|cBAG B2BA|G2E2E2 DE|G2E2E2:|
